src/lib/packages/icons/src/assets/line/calendar-empty.svg

<svg xmlns="http://www.w3.org/2000/svg" width="24" height="24" fill="none"><path fill="currentColor" d="M18 3.75h-1.25V3a.75.75 0 0 0-1.5 0v.75h-6.5V3a.75.75 0 0 0-1.5 0v.75H6c-2.418 0-3.75 1.332-3.75 3.75V18c0 2.418 1.332 3.75 3.75 3.75h12c2.418 0 3.75-1.332 3.75-3.75V7.5c0-2.418-1.332-3.75-3.75-3.75ZM20.25 18c0 1.577-.673 2.25-2.25 2.25H6c-1.577 0-2.25-.673-2.25-2.25V7.5c0-1.577.673-2.25 2.25-2.25h1.25V6a.75.75 0 0 0 1.5 0v-.75h6.5V6a.75.75 0 0 0 1.5 0v-.75H18c1.577 0 2.25.673 2.25 2.25V18Z"/></svg>

<svg width="24" height="24" viewBox="0 0 24 24" fill="none" xmlns="http://www.w3.org/2000/svg">
<path d="M18 3.75H16.75V3C16.75 2.586 16.414 2.25 16 2.25C15.586 2.25 15.25 2.586 15.25 3V3.75H8.75V3C8.75 2.586 8.414 2.25 8 2.25C7.586 2.25 7.25 2.586 7.25 3V3.75H6C3.582 3.75 2.25 5.082 2.25 7.5V18C2.25 20.418 3.582 21.75 6 21.75H18C20.418 21.75 21.75 20.418 21.75 18V7.5C21.75 5.082 20.418 3.75 18 3.75ZM20.25 18C20.25 19.577 19.577 20.25 18 20.25H6C4.423 20.25 3.75 19.577 3.75 18V7.5C3.75 5.923 4.423 5.25 6 5.25H7.25V6C7.25 6.414 7.586 6.75 8 6.75C8.414 6.75 8.75 6.414 8.75 6V5.25H15.25V6C15.25 6.414 15.586 6.75 16 6.75C16.414 6.75 16.75 6.414 16.75 6V5.25H18C19.577 5.25 20.25 5.923 20.25 7.5V18Z" fill="currentColor"/>
</svg>
